!!!COM: Edouard Lalo
!!!CNT: Francais
!!!TXO: Francais
!!!OTL: Si J'e/tais petit oiseau
!!!OPR: 6 Romances Populaires
!!!ONM: No. 4
!!!LYR: Pierre Jean de Be/ranger
!!!ENC: Jacob Pegg
!!!YOR: Romantic French Song 1830-1870, David Tunley, ed., New !!!YOR: York: Garland Publishing, Inc., 1995, vol. 3
!!!ODT: 1849/
!!NB: Vocal melody and text only encoded.
!!NB: First instance of melodic material only encoded.
**kern	**silbe
*clef G2	*
*k[f#]	*
*M3/4	*
=5	=5
{8.b	{Moi,
16dd	qui,
4.dd	me^-
8g	-me au-
=6	=6
8.b	-pre\s
16a	des
4a	bel-
8a}	-les,}
8r	.
=7	=7
{8.cc	{Vou-
16ee	-drais
4.ee	vi-
(16dd	-vre en
16cc#)	|
=8	=8
8.dd	pas-
16b	-sa-
(4b	-ger,
8b)}	|}
!!slur added
8r	.
=9	=9
{8.dd	{Que
16gg	je
4gg	por-
(8.dd	-te en-
16b)	|
=10	=10
8.b	-vie
16a	aux
4ee	ai-
8ee}	-les}
8r	.
=11	=11
{8a	{De
8g#	l'oi-
8a	-seau
8b	vif
(bq	et
8.dd)	|
!!slur added 
16cc	le/-
=12	=12
[4b	-ger!
8b]}	|}
!!tie added
8r	.
8r	.
{8b	{Com-
=13	=13
8.b	-bien
16dd	d'es-
(4.dd	-pa-
8g)	-ce
=14	=14
8.b	il
16a	vi-
[4a	-si-
16a]}	-te!}
16r	.
{8cc	{A
=15	=15
8.cc	vol-
16ee	-ti-
4.ee	-ger
16dd	tout
16ccn	l'in-
=16	=16
(8.dd	-vi-
16b)	|
[4b	-te;
16b]}	|}
16r	.
{8dd	{A
=17	=17
8.dd	vol-
16gg	-ti-
4.gg	-ger
16dd	tout
16b	l'in-
=18	=18
(8.b	-vi-
16a)	|
[4ee	-te;
8ee]}	|}
8r	.
=19	=19
{8a	{L'air
8b	est
8a	doux,
(aq	le
8ff#)	|
8.ee	ciel
16dd	est
=20	=20
2dd;}	beau!}
{16d	{Je
16g	vo-
16.f#	-le-
32g	-rais
=21	=21
[4b	vi-
8b]}	-te!}
8r	.
{16b	{Je
16dd	vo-
16.cc#	-le-
32dd	-rais
=22	=22
[4g	vi-
8g]}	-te!}
!!following rest changed to match others; correct timing
!!was 16r
8r	.
{(12g	{Si
12f#)	|
12g	j'e/-
=23	=23
4.b	-tais
8cc	pe-
8b	-tit
8ee	oi-
=24	=24
[4ee	-seau!
8ee]}	|}
8r	.
{16a	{Je
16a	vo-
16.b	-le-
32cc	-rais
=25	=25
[8dd	vi-
16dd]}	-te,}
16r	.
{12dd	{Je
12cc#	vo-
12dd	-le-
12ee	-rais
12dd	vi-
12ccn	-te,
=26	=26
(4b	vi-
ccq	|
4cc	-te,
12cc)	|
12b	Si
12a	j'e/-
=27	=27
([4g	-tais
12g]	|
12f#)	|
12e	pe-
(12f#	-tit
12g)	|
12a	oi-
=28	=28
[4g	-seau!
8g]}	|}
4r	.
8r	.
!!five melodically equivalent couplets follow.
*-	*-
